X: 3
T: Munster Bacon
R: jig
M: 6/8
L: 1/8
K: Dmaj
B|:ABA DFA|dfe d2c|BAB dAF|GFG EFG|AFA dcd|BGB efg|f/g/ af ede|[1 fdc dcB:|[2 fdc dfg||afd dga|bge a2g|~f3 ged|B/c/ dB ABG|FAd Bge|dbg efg|faf ede|[1 fdc dfg:|[2 fdc dcB|]


Tune 2684	Setting 15921

